X: 1
T: Dancing Bear, The
M: 4/4
L: 1/8
R: reel
K: Emin
|:EFGF EFGF|EFGA G2 E2|EFGF EFGF|EFGA G2 E2|
EFGF EFGF|EFGA B2 e2|B2BA BcBA|GFE2 E3z:|
|:e2 ef gfef|gf e2 e3z|e2 ef gfef|gf e2 e3z|
e2 ef gfef|gf e2 dcB2|B2BA BcBA|GFE2 E3z:|
